icon-themes/sifr_svg/cmd/sc_movepagelast.svg

<svg viewBox="0 0 16 16" xmlns="http://www.w3.org/2000/svg"><path d="m14 3h-1c-.25689 0-.52846.12983-.71875.3125l-4.28125 4.6875-4.28125-4.6875c-.19029-.18267-.97564-.3125-.71875-.3125h-1v.414062.585938c0 .30945.0903.55232.28125.75 1.073 1.41667 4.64575 4.83333 5.71875 6.25l5.71875-6.25c.19095-.19768.28125-.44055.28125-.75v-.585938zm0 9h-12v2h12zm-5-9a1 1 0 0 0 -1-1 1 1 0 0 0 -1 1 1 1 0 0 0 1 1 1 1 0 0 0 1-1z" fill="#555753"/></svg>

<svg xmlns="http://www.w3.org/2000/svg" viewBox="0 0 16 16">
  <path
     style="fill:#555753"
     d="M 14,3 H 13 C 12.74311,3 12.47154,3.12983 12.28125,3.3125 L 8,8 3.71875,3.3125 C 3.52846,3.12983 2.74311,3 3,3 H 2 V 3.414062 4 C 2,4.30945 2.0903,4.55232 2.28125,4.75 3.35425,6.16667 6.927,9.58333 8,11 L 13.71875,4.75 C 13.9097,4.55232 14,4.30945 14,4 V 3.414062 Z m 0,9 H 2 v 2 H 14 Z M 9,3 A 1,1 0 0 0 8,2 1,1 0 0 0 7,3 1,1 0 0 0 8,4 1,1 0 0 0 9,3 Z"
     />
</svg>
